svgs/thin/bridge-circle-xmark.svg

<svg xmlns="http://www.w3.org/2000/svg" viewBox="0 0 640 512"><!--! Font Awesome Pro 6.4.2 by @fontawesome - https://fontawesome.com License - https://fontawesome.com/license (Commercial License) Copyright 2023 Fonticons, Inc. --><path d="M40 32H600c4.4 0 8 3.6 8 8s-3.6 8-8 8H520v96h80c4.4 0 8 3.6 8 8s-3.6 8-8 8H40c-4.4 0-8-3.6-8-8s3.6-8 8-8h80V48H40c-4.4 0-8-3.6-8-8s3.6-8 8-8zM504 48H392v96H504V48zM376 48H264v96H376V48zM248 48H136v96H248V48zM40 256H64c48.6 0 88 39.4 88 88v96c0 13.3 10.7 24 24 24h32c13.3 0 24-10.7 24-24V344c0-48.6 39.4-88 88-88c12.3 0 24 2.5 34.7 7.1c-3.2 4.4-6.3 8.9-9.1 13.6c-7.9-3-16.5-4.7-25.5-4.7c-39.8 0-72 32.2-72 72v96c0 22.1-17.9 40-40 40H176c-22.1 0-40-17.9-40-40V344c0-39.8-32.2-72-72-72H40c-4.4 0-8-3.6-8-8s3.6-8 8-8zM624 368a128 128 0 1 0 -256 0 128 128 0 1 0 256 0zm-272 0a144 144 0 1 1 288 0 144 144 0 1 1 -288 0zm205.7-50.3L507.3 368l50.3 50.3c3.1 3.1 3.1 8.2 0 11.3s-8.2 3.1-11.3 0L496 379.3l-50.3 50.3c-3.1 3.1-8.2 3.1-11.3 0s-3.1-8.2 0-11.3L484.7 368l-50.3-50.3c-3.1-3.1-3.1-8.2 0-11.3s8.2-3.1 11.3 0L496 356.7l50.3-50.3c3.1-3.1 8.2-3.1 11.3 0s3.1 8.2 0 11.3z"/></svg>

<svg xmlns="http://www.w3.org/2000/svg" viewBox="0 0 640 512"><!--! Font Awesome Pro 6.1.1 by @fontawesome - https://fontawesome.com License - https://fontawesome.com/license (Commercial License) Copyright 2022 Fonticons, Inc. --><path d="M600 32C604.4 32 608 35.58 608 40C608 44.42 604.4 48 600 48H520V144H600C604.4 144 608 147.6 608 152C608 156.4 604.4 160 600 160H40C35.58 160 32 156.4 32 152C32 147.6 35.58 144 40 144H120V48H40C35.58 48 32 44.42 32 40C32 35.58 35.58 32 40 32H600zM504 48H392V144H504V48zM264 48V144H376V48H264zM248 48H136V144H248V48zM64 256C112.6 256 152 295.4 152 344V440C152 453.3 162.7 464 176 464H208C221.3 464 232 453.3 232 440V344C232 295.4 271.4 256 320 256C332.3 256 344 258.5 354.7 263.1C351.4 267.5 348.4 271.1 345.5 276.7C337.6 273.6 328.1 272 320 272C280.2 272 248 304.2 248 344V440C248 462.1 230.1 480 208 480H176C153.9 480 136 462.1 136 440V344C136 304.2 103.8 272 64 272H40C35.58 272 32 268.4 32 264C32 259.6 35.58 256 40 256L64 256zM507.3 368L557.7 418.3C560.8 421.5 560.8 426.5 557.7 429.7C554.5 432.8 549.5 432.8 546.3 429.7L496 379.3L445.7 429.7C442.5 432.8 437.5 432.8 434.3 429.7C431.2 426.5 431.2 421.5 434.3 418.3L484.7 368L434.3 317.7C431.2 314.5 431.2 309.5 434.3 306.3C437.5 303.2 442.5 303.2 445.7 306.3L496 356.7L546.3 306.3C549.5 303.2 554.5 303.2 557.7 306.3C560.8 309.5 560.8 314.5 557.7 317.7L507.3 368zM640 368C640 447.5 575.5 512 496 512C416.5 512 352 447.5 352 368C352 288.5 416.5 224 496 224C575.5 224 640 288.5 640 368zM496 240C425.3 240 368 297.3 368 368C368 438.7 425.3 496 496 496C566.7 496 624 438.7 624 368C624 297.3 566.7 240 496 240z"/></svg>
